X: 4
T: The Drunken Gauger
R: jig
M: 6/8
L: 1/8
K: Gmaj
|:D|GAB c2A|BAG AGE|GB/c/d g2e|dBe dBG|
c2A Bc/d/B|AGA BGE|DE/F/G AGA|BGF G2:|
|:D|GB/c/d g2e|dBe dBG|Ace a3|agb age|
dB/c/d g2e|dBe dBG|c2A Bc/d/B|AGA BGE|
GAB c2A|BAG AGE|GB/c/d g2e|dBe dBG|
c2A B/c/dB|AGA BGE|DE/F/G AGA|BGF G2:|


Tune 2180	Setting 28861

